(
Server.default = s = Server.local;
s.options.sampleRate_(48000);
s.options.numOutputBusChannels = 6;
s.options.numInputBusChannels = 2;
)

"SC_JACK_DEFAULT_INPUTS".setenv("system:capture_1,system:capture_2");

s.boot;
s.recSampleFormat_("int24");
s.quit;
s.makeGui;

//s.prepareForRecord("/Volumes/ALEX_BUCK_2T_USBC/MADRIGALE_A_SEI_VASI/PERFORMANCE/sabado.aif");
//s.record;
//s.stopRecording;
